uiw/swap-right.svg

<svg xmlns="http://www.w3.org/2000/svg" viewBox="0 0 20 20" height="1em" width="1em">
  <path fill="#555" fill-rule="evenodd" d="M17.6250577,12.0801747 C11.5245859,12.0801747 5.88283114,12.0801747 0.699793471,12.0801747 C0.52406311,12.0801747 2.13162821e-14,12.1722157 2.13162821e-14,12.7900873 C2.13162821e-14,13.407959 0.523635864,13.5 0.699793471,13.5 C9.35391235,13.5 18.294693,13.5 19.298806,13.5 C19.7049103,13.5 20,13.2133484 20,12.7900873 C20,12.559082 19.909729,12.4275208 19.8358612,12.3370514 C19.7403107,12.2304637 19.6827138,12.1681264 19.6630707,12.1500397 L14.3388214,6.67959595 C13.9907379,6.40224202 13.6708088,6.41058145 13.379034,6.70461423 C13.0872592,6.99864701 13.0679956,7.31541643 13.3212433,7.65492249 L17.6250577,12.0801747 Z"/>
</svg>

<svg xmlns="http://www.w3.org/2000/svg" viewBox="0 0 20 20" height="1em" width="1em">
  <path fill="#555" fill-rule="evenodd" d="M17.625 12.08H.7c-.176 0-.7.092-.7.71s.524.71.7.71h18.599c.406 0 .701-.287.701-.71a.665.665 0 0 0-.164-.453 4.428 4.428 0 0 0-.173-.187L14.34 6.68c-.348-.278-.668-.27-.96.025-.292.294-.311.61-.058.95l4.304 4.425Z"/>
</svg>
